X: 52
T: Roy's Wife of Aldivalloch
%R: air, strathspey
B: Urbani & Liston "A Selection of Scotch, English Irish, and Foreign Airs", Edinburgh 1800, p.21 #1
F: http://www.vwml.org/browse/browse-collections-dance-tune-books/browse-urbani1800
Z: 2014 John Chambers <jc:trillian.mit.edu>
Q: "Slow"
M: C
L: 1/16
K: D
[|\
(AF3) F3E F3E F B3 | AF3F3D E3DEF3 |\
A3F {F}E3D d3e {d}f3e | {e}d3B A3{Bd}F  E3D EHF3 |]
A |\
A3 (B/c/) d3f (ed)(ef) d3A | AB3cd3 F{F2}E3 D E HF2 A |\
A3 (B/c/) d3f (ed)gd {f}He2 d | {d}f3e d3 F F3E F2 {A}d<B |]

%%sep 1 1 500
%%sep 1 1 500
